icon-svg/play.svg

<svg xmlns="http://www.w3.org/2000/svg" fill="#44739e" viewBox="0 0 24 24"><path d="M29.85 18.441c-2.267 1.121-4.495.288-5.985-.299-1.232-.485-21.803-8.967-21.803-8.967s-1.898-.847.174-1.6c2.556-.93 4.619-.158 7.005.8 1.503.604 20.062 8.055 20.062 8.055s2.814.89.547 2.011m2.147-.947c-.018-.516-.285-1.433-1.807-2.059L8.237 6.621C7.308 6.239 5.849 6 4.436 6c-.729 0-1.773.067-2.61.389C.35 6.957.052 7.802.016 8.309l-.008-.002L0 14.366l.006.001c.03.487.294 1.261 1.555 1.8l22.539 9.27c.846.36 1.962.563 3.133.563 1.174 0 2.281-.205 3.117-.574 1.443-.638 1.648-1.56 1.643-2.053L32 17.495z"/></svg>

<?xml version="1.0" encoding="UTF-8"?>
<svg width="33px" height="32px" viewBox="0 0 33 32" fill="#44739e" version="1.1" xmlns="http://www.w3.org/2000/svg" xmlns:xlink="http://www.w3.org/1999/xlink">
            <path d="M29.85,18.441 C27.583,19.562 25.355,18.729 23.865,18.142 C22.633,17.657 2.062,9.175 2.062,9.175 C2.062,9.175 0.164,8.328 2.236,7.575 C4.792,6.645 6.855,7.417 9.241,8.375 C10.744,8.979 29.303,16.43 29.303,16.43 C29.303,16.43 32.117,17.32 29.85,18.441 Z M31.997,17.494 C31.979,16.978 31.712,16.061 30.19,15.435 L8.237,6.621 C7.308,6.239 5.849,6 4.436,6 C3.707,6 2.663,6.067 1.826,6.389 C0.35,6.957 0.052,7.802 0.016,8.309 L0.008,8.307 L0,14.366 L0.006,14.367 C0.036,14.854 0.3,15.628 1.561,16.167 L24.1,25.437 C24.946,25.797 26.062,26 27.233,26 C28.407,26 29.514,25.795 30.35,25.426 C31.793,24.788 31.998,23.866 31.993,23.373 L32,17.495 L31.997,17.494 Z"></path>
</svg>
